X: 41322
T: Turbulence
R: reel
M: 4/4
K: Eminor
GF|EBBB cBAc|BAGB AGFG|EEEF GGGA|Begf ed B/c/d|
eBBB cBAc|BAGB AGFG|EEEF GGGA|Beed e3d|
eBBB cBAc|BAGB AGFG|EEFF GGAA|Bdef gfed|
eB B/B/B cBAc|BAGB AGFG|EEEF GGGA|Beed e2ed|
eBBB eBgg|fBBB fBaB|bBaB gBfB|{f}gggf ed B/c/d|
e2ed eBBB|fffe faaa|c'bbb baaa|agfd e2gf|
eBBB eBgg|fBBB fBaa|bBaB gBfB|{f}gggf ed B/c/d|
e2ed eggg|{e}fffe faaa|c'bbb baaa|agfd e2gf|
eBBB cBAc|BAGB AGFG|EEEF GGGA|Begf ed B/c/d|
eB B/B/B cBAc|BAGB AGFG|EEEF GGGA|Beed e2ed|
eBBB cAAA|BGGG AGFG|EEEF GGGA|Begf ed B/c/d|
eBBB cBAc|BAGB AGFG|EEEF GGGA|Beed e2ed|
eBBB eBgg|fBBB fBaB|bBaB gBfB|{f}gggf ed B/c/d|
e2ed eBBB|fffe faaa|c'bbb baaa|agfd e2gf|
eBBB eBgg|fBBB fBaa|bBaB gBfB|{f}gggf ed B/c/d|
e2ed eggg|{e}fffe faaa|c'bbb baaa|aggg gfff|
ezBB cBAc|BAGB AGFG|EEEF GGGA|Bzgf ed B/c/d|
eB B/B/B cBAc|BAGB AGFG|EEEF GGGA|Beed e2ed|
eBBB cBAc|BAGB AGFG|EEEF GGGA|Bzgf ed B/c/d|
eBBB cBAc|BAGB AGFG|EEEF GGGA|Beed e2ed|
eBBB eBgg|fBBB fBaB|bBaB gBfB|{f}gggf ed B/c/d|
e2ed eBBB|fffe faaa|c'bbb baaa|agfd e2gf|
eBBB eBgg|fBBB fBaz|bBaB gBfB|{f}gggf ed B/c/d|
e2ed eggg|{e}fffe faaa|c'bbb baaa|agfd egfd|{d}e8||

